timer-lock-open-outline.svg

<svg fill="currentColor" viewBox="0 0 24 24"><path d="M11 8h2v6h-2zm2 11.92c-.33.05-.66.08-1 .08-3.87 0-7-3.13-7-7s3.13-7 7-7c2.44 0 4.59 1.26 5.85 3.15.37-.09.75-.15 1.15-.15.39 0 .76.06 1.12.14-.3-.64-.66-1.21-1.09-1.75l1.42-1.42c-.45-.51-.9-.97-1.41-1.41L17.62 6c-1.55-1.26-3.5-2-5.62-2a9 9 0 0 0 0 18c.42 0 .83-.04 1.24-.09-.15-.38-.24-.79-.24-1.21zM15 1H9v2h6zm6.8 15h-4.3v-2.5c0-.8.7-1.3 1.5-1.3s1.5.5 1.5 1.3v.5h1.3v-.5c0-1.4-1.4-2.5-2.8-2.5s-2.8 1.1-2.8 2.5V16c-.6 0-1.2.6-1.2 1.2v3.5c0 .7.6 1.3 1.2 1.3h5.5c.7 0 1.3-.6 1.3-1.2v-3.5c0-.7-.6-1.3-1.2-1.3"/></svg>

<svg  viewBox="0 0 24 24" fill="currentColor"><path  d="M11 8H13V14H11V8M13 19.92C12.67 19.97 12.34 20 12 20C8.13 20 5 16.87 5 13S8.13 6 12 6C14.44 6 16.59 7.26 17.85 9.15C18.22 9.06 18.6 9 19 9C19.39 9 19.76 9.06 20.12 9.14C19.82 8.5 19.46 7.93 19.03 7.39L20.45 5.97C20 5.46 19.55 5 19.04 4.56L17.62 6C16.07 4.74 14.12 4 12 4C7.03 4 3 8.03 3 13S7.03 22 12 22C12.42 22 12.83 21.96 13.24 21.91C13.09 21.53 13 21.12 13 20.7V19.92M15 1H9V3H15V1M21.8 16H17.5V13.5C17.5 12.7 18.2 12.2 19 12.2S20.5 12.7 20.5 13.5V14H21.8V13.5C21.8 12.1 20.4 11 19 11S16.2 12.1 16.2 13.5V16C15.6 16 15 16.6 15 17.2V20.7C15 21.4 15.6 22 16.2 22H21.7C22.4 22 23 21.4 23 20.8V17.3C23 16.6 22.4 16 21.8 16Z"/></svg>
